X: 20202
T: Joe Bane's
R: polka
M: 2/4
K: Dmajor
D>E FD|A>F DA|FD AD|FE EA|
D>E FD|A>F DE/F/|FE/D/ B,E|ED DA:|
BA d>B|A>F Dd|BA dF|FE Ed|
BA d>B|A>F DE/F/|FE/D/ B,E|ED DA:|

